X:1
T:Title
%%score { ( 1 3 ) | 2 }
L:1/8
Q:1/4=108
M:4/4
K:Eb
V:1 treble nm="Grand Piano"
V:3 treble 
V:2 bass 
V:1
 G3 G F2 E2 | B2 c2 B2 G2 | [EG]3 [EG] [FA]2 [FA]2 | [EG]2 [DF]2 A2 G2 | G3 G F2 E2 | %5
w: J.~M.~Dungan * * *|||||
 B2 c2 B2 [Fe]2 | [B,EG]4 [A,DF]3 [A,DF] |[M:3/4] [G,B,E]6 |[M:1/4] (3z cd | %9
w: ||||
[M:4/4] z4 [Ed]2[K:bass][K:treble] [Ec]2 | c2 B2 G2 B>c | B6 z2 |[M:3/4] B6 |[M:1/4] (3Bcd | %14
w: |||||
[M:4/4] z4 [Ed]2[K:bass][K:treble] [Ec]2 | B2 [B,_DE]2 [CB]2 [CFA]2 | G3 [EB] [DA]2 [DF]2 | %17
w: |||
 [B,E]6 z2 |] %18
w: |
V:2
 [E,B,E]3 [E,B,E] [E,A,E]2 [E,G,]2 | [E,G,E]2 [E,A,E]2 [E,G,E]2 [E,B,E]2 | %2
 [C,C]3 [C,C] [F,C]2 [F,C]2 | [B,,B,]2 [B,,A,]2 [E,CE]2 [E,B,E]2 | %4
 [E,B,E]3 [E,B,E] [E,A,E]2 [E,G,]2 | [E,G,E]2 [E,A,E]2 [E,G,E]2 [C,=A,]2 | B,,4 B,,3 B,, | %7
[M:3/4] E,6 |[M:1/4][K:treble] (3B=A_A |[M:4/4][K:bass] [E,B,]3 [E,B,] .[A,,A,]2 .[C,A,]2 | %10
 [E,A,E]2 [E,G,E]2 [E,B,E]2 z2 | z2 [F,A,]>[F,A,] [B,,A,]2 z2 |[M:3/4] z2 [G,B,]>[F,A,] [E,G,]2 | %13
[M:1/4] (3z[K:treble] =A_A |[M:4/4][K:bass] [E,B,]3 [E,B,] .[A,,A,]2 .[C,A,]2 | %15
 [E,G,E]2 [G,,G,]2 [A,,A,]2 [F,,F,]2 | [B,E]3 [B,,G,] [B,,F,]2 [B,,A,]2 | [E,G,]6 z2 |] %18
V:3
 x8 | x8 | x8 | x8 | x8 | x8 | x8 |[M:3/4] x6 |[M:1/4] x2 | %9
[M:4/4] [Ge]3 [EG] z[K:bass] B,,[K:treble] z D, | x8 | z2 D>D D2 B>c |[M:3/4] z2 E>D E2 | %13
[M:1/4] x2 |[M:4/4] [Ge]3 [EG] z[K:bass] B,,[K:treble] z D, | x8 | x8 | x8 |] %18

